X: 36284
T: Seamus Cooley's
R: jig
M: 6/8
K: Dmajor
Fdd cAA|dcA dAG|Fdd cAA|dcA G3|
Fdd cAA|dcd efg|faf ded|1 cAF G3:|2 cAF G2B||
A2A fed|cAB =cAG|~A3 fed|ecA GFG|
~A3 fed|cAB =cde|faf ded|1 cAF G2B:|2 cAF G3||

